assets/img/icons/drink.svg

<svg width="60" height="60" viewBox="0 0 60 60" fill="none" xmlns="http://www.w3.org/2000/svg">
<path d="M45.7415 29.7529C45.7496 37.244 40.7244 43.4243 33.9475 45.1855C32.9856 45.4357 32.2504 46.2649 32.2502 47.2588V50.5C32.2502 51.6046 33.1457 52.5 34.2502 52.5H39.2502C40.3547 52.5001 41.2502 53.3955 41.2502 54.5V55C41.2502 56.1045 40.3547 56.9999 39.2502 57H20.7502C19.6457 57 18.7502 56.1046 18.7502 55V54.5C18.7502 53.3954 19.6457 52.5 20.7502 52.5H25.7502C26.8547 52.4999 27.7502 51.6045 27.7502 50.5V47.2598C27.7502 46.2655 27.0145 45.4351 26.052 45.1855C23.7827 44.5975 21.7115 43.5149 19.9583 42.0625L45.3674 25.6514L45.7415 29.7529ZM50.9631 10.085C51.8911 9.48568 53.1295 9.75271 53.7288 10.6807L54.2717 11.5215C54.8706 12.4493 54.6038 13.687 53.676 14.2861L44.7766 20.0332C44.7813 20.0454 44.7878 20.057 44.7922 20.0693L16.6292 38.2588C16.6221 38.2476 16.6156 38.2359 16.6086 38.2246L9.03638 43.1162C8.10848 43.7153 6.87091 43.4484 6.27173 42.5205L5.72876 41.6797C5.12967 40.7518 5.39569 39.5143 6.32349 38.915L14.6624 33.5293C14.3941 32.3815 14.2502 31.186 14.2502 29.957L15.1018 20.5693C15.1953 19.539 16.0595 18.75 17.094 18.75H37.5461L50.9631 10.085ZM41.4807 3C42.5147 3.00025 43.378 3.78865 43.4719 4.81836L44.1321 12.0684C44.2386 13.2396 43.3159 14.2498 42.1399 14.25H17.8645C16.6886 14.25 15.7661 13.2404 15.8723 12.0693L16.5305 4.81934C16.6241 3.7891 17.4882 3 18.5227 3H41.4807Z" fill="#BF1F1F"/>
</svg>

<svg width="60" height="60" fill="none" xmlns="http://www.w3.org/2000/svg"><path d="M45.742 29.753c.008 7.491-5.018 13.671-11.794 15.432-.962.25-1.698 1.08-1.698 2.074V50.5a2 2 0 0 0 2 2h5a2 2 0 0 1 2 2v.5a2 2 0 0 1-2 2h-18.5a2 2 0 0 1-2-2v-.5a2 2 0 0 1 2-2h5a2 2 0 0 0 2-2v-3.24c0-.994-.735-1.825-1.698-2.075a15.744 15.744 0 0 1-6.094-3.123l25.41-16.41.373 4.1Zm5.221-19.668a2 2 0 0 1 2.766.596l.543.84a2 2 0 0 1-.596 2.765l-8.9 5.747c.005.012.012.024.016.036L16.63 38.26l-.02-.034-7.573 4.891a2 2 0 0 1-2.764-.596l-.543-.84a2 2 0 0 1 .594-2.765l8.34-5.386a15.677 15.677 0 0 1-.413-3.572l.852-9.388a2 2 0 0 1 1.992-1.819h20.452l13.417-8.665ZM41.481 3a2 2 0 0 1 1.99 1.818l.661 7.25a2 2 0 0 1-1.992 2.182H17.864a2 2 0 0 1-1.992-2.18l.659-7.25A2 2 0 0 1 18.523 3H41.48Z" fill="#BF1F1F"/></svg>
